dist/assets/images/main/itemBasket.svg

<svg width="24" height="24" viewBox="0 0 24 24" fill="none" xmlns="http://www.w3.org/2000/svg">
<g clip-path="url(#clip0_1425_3763)">
<path d="M23 19H21V17C21 16.7348 20.8946 16.4804 20.7071 16.2929C20.5196 16.1054 20.2652 16 20 16C19.7348 16 19.4804 16.1054 19.2929 16.2929C19.1054 16.4804 19 16.7348 19 17V19H17C16.7348 19 16.4804 19.1054 16.2929 19.2929C16.1054 19.4804 16 19.7348 16 20C16 20.2652 16.1054 20.5196 16.2929 20.7071C16.4804 20.8946 16.7348 21 17 21H19V23C19 23.2652 19.1054 23.5196 19.2929 23.7071C19.4804 23.8946 19.7348 24 20 24C20.2652 24 20.5196 23.8946 20.7071 23.7071C20.8946 23.5196 21 23.2652 21 23V21H23C23.2652 21 23.5196 20.8946 23.7071 20.7071C23.8946 20.5196 24 20.2652 24 20C24 19.7348 23.8946 19.4804 23.7071 19.2929C23.5196 19.1054 23.2652 19 23 19Z" fill="#D0D0D0"/>
<path d="M21 6H18C18 4.4087 17.3679 2.88258 16.2426 1.75736C15.1174 0.632141 13.5913 0 12 0C10.4087 0 8.88258 0.632141 7.75736 1.75736C6.63214 2.88258 6 4.4087 6 6H3C2.20435 6 1.44129 6.31607 0.87868 6.87868C0.31607 7.44129 0 8.20435 0 9L0 19C0.00158786 20.3256 0.528882 21.5964 1.46622 22.5338C2.40356 23.4711 3.67441 23.9984 5 24H14C14.2652 24 14.5196 23.8946 14.7071 23.7071C14.8946 23.5196 15 23.2652 15 23C15 22.7348 14.8946 22.4804 14.7071 22.2929C14.5196 22.1054 14.2652 22 14 22H5C4.20435 22 3.44129 21.6839 2.87868 21.1213C2.31607 20.5587 2 19.7956 2 19V9C2 8.73478 2.10536 8.48043 2.29289 8.29289C2.48043 8.10536 2.73478 8 3 8H6V10C6 10.2652 6.10536 10.5196 6.29289 10.7071C6.48043 10.8946 6.73478 11 7 11C7.26522 11 7.51957 10.8946 7.70711 10.7071C7.89464 10.5196 8 10.2652 8 10V8H16V10C16 10.2652 16.1054 10.5196 16.2929 10.7071C16.4804 10.8946 16.7348 11 17 11C17.2652 11 17.5196 10.8946 17.7071 10.7071C17.8946 10.5196 18 10.2652 18 10V8H21C21.2652 8 21.5196 8.10536 21.7071 8.29289C21.8946 8.48043 22 8.73478 22 9V14C22 14.2652 22.1054 14.5196 22.2929 14.7071C22.4804 14.8946 22.7348 15 23 15C23.2652 15 23.5196 14.8946 23.7071 14.7071C23.8946 14.5196 24 14.2652 24 14V9C24 8.20435 23.6839 7.44129 23.1213 6.87868C22.5587 6.31607 21.7956 6 21 6ZM8 6C8 4.93913 8.42143 3.92172 9.17157 3.17157C9.92172 2.42143 10.9391 2 12 2C13.0609 2 14.0783 2.42143 14.8284 3.17157C15.5786 3.92172 16 4.93913 16 6H8Z" fill="#D0D0D0"/>
</g>
<defs>
<clipPath id="clip0_1425_3763">
<rect width="24" height="24" fill="white"/>
</clipPath>
</defs>
</svg>

<svg width="24" height="24" fill="none" xmlns="http://www.w3.org/2000/svg"><g clip-path="url(#clip0_1425_3763)" fill="#D0D0D0"><path d="M23 19h-2v-2a1 1 0 00-2 0v2h-2a1 1 0 000 2h2v2a1 1 0 002 0v-2h2a1 1 0 000-2z"/><path d="M21 6h-3A6 6 0 106 6H3a3 3 0 00-3 3v10a5.006 5.006 0 005 5h9a1 1 0 000-2H5a3 3 0 01-3-3V9a1 1 0 011-1h3v2a1 1 0 102 0V8h8v2a1 1 0 002 0V8h3a1 1 0 011 1v5a1 1 0 002 0V9a3 3 0 00-3-3zM8 6a4 4 0 018 0H8z"/></g><defs><clipPath id="clip0_1425_3763"><path fill="#fff" d="M0 0h24v24H0z"/></clipPath></defs></svg>
